static/img/site/mysql.svg

<svg width="32" height="32" viewBox="0 0 32 32" fill="none" xmlns="http://www.w3.org/2000/svg">
<g clip-path="url(#clip0_1_3378)">
<path fill-rule="evenodd" clip-rule="evenodd" d="M29.4704 24.929C27.73 24.8805 26.3798 25.0589 25.2481 25.5349C24.9223 25.6658 24.3993 25.6658 24.3564 26.0759C24.5306 26.248 24.5515 26.5297 24.7042 26.7682C24.9652 27.2011 25.4227 27.7842 25.8359 28.0867L27.2285 29.082C28.0773 29.6006 29.0348 29.9036 29.8616 30.4228C30.3406 30.7258 30.8191 31.115 31.2981 31.4398C31.542 31.6129 31.6898 31.8945 31.9947 32.0022V31.9367C31.8425 31.7428 31.7986 31.4616 31.6469 31.2445L30.9932 30.6177C30.3625 29.7742 29.5787 29.0383 28.7299 28.4333C28.0334 27.9573 26.5105 27.3087 26.2276 26.5088L26.1846 26.4604C26.6627 26.4119 27.2285 26.2437 27.6861 26.1138C28.4265 25.9198 29.1006 25.9625 29.8616 25.7681L30.9069 25.4651V25.2712C30.5152 24.882 30.2323 24.3628 29.8191 23.9953C28.7094 23.0437 27.49 22.1135 26.2276 21.335C25.553 20.9026 24.6823 20.6209 23.9642 20.2539C23.7023 20.124 23.2677 20.0591 23.1155 19.8429C22.7228 19.3678 22.5058 18.74 22.2229 18.1772L20.4385 14.414C20.0468 13.5705 19.8068 12.727 19.3288 11.9485C17.087 8.27158 14.649 6.0441 10.9057 3.85927C10.1009 3.40505 9.14335 3.20969 8.12534 2.97216L6.49321 2.8849C6.14444 2.73366 5.79665 2.32258 5.49179 2.1277C4.25135 1.34917 1.05196 -0.3378 0.137358 1.88532C-0.450424 3.29113 1.00805 4.67513 1.50316 5.38918C1.87387 5.88655 2.35191 6.44888 2.61385 7.0112C2.76018 7.37865 2.80896 7.7684 2.96164 8.15766C3.30943 9.10925 3.63625 10.1694 4.0933 11.0565C4.3372 11.5108 4.59329 11.9873 4.89815 12.3979C5.07229 12.6403 5.37715 12.744 5.44203 13.1333C5.13716 13.5662 5.11619 14.2143 4.94205 14.7558C4.15818 17.1999 4.46304 20.2278 5.57276 22.0272C5.92153 22.5677 6.74345 23.7578 7.85853 23.3031C8.838 22.9138 8.61947 21.6811 8.90239 20.5996C8.96824 20.3402 8.92434 20.1672 9.05457 19.9936V20.0421L9.94722 21.8372C10.6218 22.8969 11.7974 24.0002 12.7764 24.7361C13.2983 25.1253 13.712 25.7962 14.3646 26.0338V25.9683H14.3217C14.191 25.7744 13.9949 25.6872 13.8207 25.5359C13.429 25.1466 12.9939 24.6706 12.6891 24.2382C11.7754 23.0273 10.9706 21.6859 10.2521 20.3019C9.90332 19.6315 9.59846 18.8961 9.31652 18.2257C9.18482 17.9659 9.18482 17.5761 8.96775 17.4472C8.64094 17.9222 8.1629 18.3343 7.92242 18.9179C7.50878 19.8477 7.46586 20.9942 7.31367 22.1838C7.22586 22.2056 7.26489 22.1838 7.22587 22.2323C6.53029 22.0597 6.29029 21.3451 6.02933 20.7402C5.37667 19.2044 5.2674 16.7389 5.83323 14.9652C5.98542 14.511 6.63906 13.0833 6.37809 12.6509C6.24639 12.2398 5.81226 12.0023 5.57227 11.6775C5.28935 11.2664 4.98546 10.7477 4.78937 10.2935C4.26744 9.08162 4.00648 7.74125 3.44016 6.52983C3.17822 5.96751 2.72165 5.38337 2.35142 4.86467C1.93778 4.28053 1.4817 3.86945 1.15488 3.1777C1.0461 2.93532 0.893913 2.55042 1.06805 2.29058C1.11098 2.11752 1.19878 2.0482 1.37194 2.00942C1.65486 1.76704 2.46068 2.07438 2.7436 2.20333C3.54844 2.52812 4.22305 2.83061 4.89766 3.28435C5.20253 3.50055 5.52935 3.91163 5.92104 4.02022H6.37858C7.07514 4.17146 7.85804 4.06869 8.51021 4.2626C9.66382 4.63102 10.7082 5.17104 11.6447 5.75566C14.4953 7.55074 16.8465 10.103 18.4347 13.1531C18.6957 13.6505 18.8044 14.1047 19.0444 14.6239C19.502 15.6841 20.0678 16.7651 20.5239 17.804C20.9814 18.8205 21.4165 19.8593 22.0692 20.7028C22.396 21.1571 23.7013 21.3946 24.2886 21.6326C24.7242 21.8265 25.3983 22.001 25.791 22.2386C26.5305 22.6928 27.2705 23.212 27.9665 23.7093C28.3143 23.9682 29.4031 24.5092 29.4679 24.9406L29.4704 24.929ZM7.27611 6.13378C6.97542 6.13114 6.67567 6.16748 6.38443 6.24188V6.29036H6.42736C6.6015 6.63648 6.90637 6.8745 7.12392 7.17747L7.62487 8.21583L7.6678 8.16736C7.97266 7.95115 8.12534 7.60503 8.12534 7.08634C7.99462 6.93509 7.97315 6.78336 7.86438 6.63211C7.73365 6.41591 7.45074 6.30733 7.27611 6.13475V6.13378Z" fill="#857F07"/>
</g>
<defs>
<clipPath id="clip0_1_3378">
<rect width="32" height="32" fill="white"/>
</clipPath>
</defs>
</svg>

<svg xmlns="http://www.w3.org/2000/svg" width="32" height="32" fill="none" viewBox="0 0 32 32"><g clip-path="url(#a)"><path fill="#857f07" fill-rule="evenodd" d="M29.47 24.929c-1.74-.048-3.09.13-4.222.606-.326.13-.849.13-.892.54.175.173.195.455.348.693.261.433.719 1.016 1.132 1.319l1.393.995c.848.519 1.806.822 2.633 1.34.479.304.957.693 1.436 1.018.244.173.392.454.697.562v-.065c-.152-.194-.196-.475-.348-.693l-.654-.626a10.3 10.3 0 0 0-2.263-2.185c-.697-.476-2.22-1.124-2.502-1.924l-.043-.049c.478-.048 1.044-.216 1.501-.346.74-.194 1.415-.152 2.176-.346l1.045-.303v-.194c-.392-.389-.675-.908-1.088-1.276-1.11-.951-2.329-1.882-3.591-2.66-.675-.432-1.546-.714-2.264-1.081-.262-.13-.696-.195-.848-.411-.393-.475-.61-1.103-.893-1.666l-1.784-3.763c-.392-.844-.632-1.687-1.11-2.466-2.242-3.676-4.68-5.904-8.423-8.089-.805-.454-1.763-.65-2.78-.887l-1.633-.087c-.349-.151-.696-.562-1.001-.757-1.24-.779-4.44-2.466-5.355-.243-.587 1.406.871 2.79 1.366 3.504.37.498.849 1.06 1.11 1.622.147.368.196.757.349 1.147.347.951.674 2.011 1.131 2.899.244.454.5.93.805 1.34.174.243.48.347.544.736-.305.433-.326 1.081-.5 1.623-.784 2.444-.479 5.472.63 7.271.35.54 1.171 1.73 2.287 1.276.979-.39.76-1.622 1.043-2.703.066-.26.022-.433.153-.606v.048l.892 1.795c.675 1.06 1.85 2.163 2.83 2.9.521.388.935 1.06 1.588 1.297v-.066h-.043c-.131-.194-.327-.28-.501-.432-.392-.39-.827-.865-1.132-1.298-.914-1.21-1.718-2.552-2.437-3.936-.349-.67-.654-1.406-.935-2.076-.132-.26-.132-.65-.35-.779-.326.475-.804.887-1.045 1.47-.413.93-.456 2.077-.608 3.267-.088.022-.05 0-.088.048-.696-.172-.936-.887-1.197-1.492-.652-1.536-.762-4.001-.196-5.775.152-.454.806-1.882.545-2.314-.132-.411-.566-.649-.806-.973a8.7 8.7 0 0 1-.783-1.385C4.267 9.083 4.006 7.742 3.44 6.53c-.262-.562-.718-1.147-1.089-1.665-.413-.584-.87-.996-1.196-1.687-.109-.243-.261-.628-.087-.887.043-.173.13-.243.304-.282.283-.242 1.089.065 1.372.194.804.325 1.479.628 2.154 1.081.305.217.631.628 1.023.736h.458c.696.151 1.479.049 2.131.243 1.154.368 2.198.908 3.135 1.493a19.23 19.23 0 0 1 6.79 7.397c.26.497.37.952.61 1.47.457 1.061 1.023 2.142 1.479 3.181.457 1.017.892 2.055 1.545 2.899.327.454 1.632.692 2.22.93.435.194 1.11.368 1.502.606.74.454 1.48.973 2.175 1.47.348.26 1.437.8 1.502 1.232zM7.276 6.134c-.3-.003-.6.033-.892.108v.048h.043c.175.346.48.585.697.887l.5 1.039.044-.049c.305-.216.457-.562.457-1.08-.13-.152-.152-.304-.26-.455-.131-.216-.414-.325-.589-.497z" clip-rule="evenodd"/></g><defs><clipPath id="a"><path fill="#fff" d="M0 0h32v32H0z"/></clipPath></defs></svg>
